packages/assets/static/images/icons/date-picker.svg

<svg width="24" height="24" viewBox="0 0 24 24" xmlns="http://www.w3.org/2000/svg">
<path d="M20 3H17.75V2.25C17.75 2.05109 17.671 1.86032 17.5303 1.71967C17.3897 1.57902 17.1989 1.5 17 1.5C16.8011 1.5 16.6103 1.57902 16.4697 1.71967C16.329 1.86032 16.25 2.05109 16.25 2.25V3H8.75V2.25C8.75 2.05109 8.67098 1.86032 8.53033 1.71967C8.38968 1.57902 8.19891 1.5 8 1.5C7.80109 1.5 7.61032 1.57902 7.46967 1.71967C7.32902 1.86032 7.25 2.05109 7.25 2.25V3H5C4.60218 3 4.22064 3.15804 3.93934 3.43934C3.65804 3.72064 3.5 4.10218 3.5 4.5V19.5C3.5 19.8978 3.65804 20.2794 3.93934 20.5607C4.22064 20.842 4.60218 21 5 21H20C20.3978 21 20.7794 20.842 21.0607 20.5607C21.342 20.2794 21.5 19.8978 21.5 19.5V4.5C21.5 4.10218 21.342 3.72064 21.0607 3.43934C20.7794 3.15804 20.3978 3 20 3ZM7.25 4.5V5.25C7.25 5.44891 7.32902 5.63968 7.46967 5.78033C7.61032 5.92098 7.80109 6 8 6C8.19891 6 8.38968 5.92098 8.53033 5.78033C8.67098 5.63968 8.75 5.44891 8.75 5.25V4.5H16.25V5.25C16.25 5.44891 16.329 5.63968 16.4697 5.78033C16.6103 5.92098 16.8011 6 17 6C17.1989 6 17.3897 5.92098 17.5303 5.78033C17.671 5.63968 17.75 5.44891 17.75 5.25V4.5H20V7.5H5V4.5H7.25ZM20 19.5H5V9H20V19.5ZM11 11.25V17.25C11 17.4489 10.921 17.6397 10.7803 17.7803C10.6397 17.921 10.4489 18 10.25 18C10.0511 18 9.86032 17.921 9.71967 17.7803C9.57902 17.6397 9.5 17.4489 9.5 17.25V12.4631L9.08563 12.6713C8.9076 12.7603 8.7015 12.7749 8.51268 12.712C8.32385 12.649 8.16776 12.5137 8.07875 12.3356C7.98974 12.1576 7.97509 11.9515 8.03803 11.7627C8.10097 11.5739 8.23635 11.4178 8.41437 11.3287L9.91437 10.5787C10.0288 10.5215 10.1559 10.4945 10.2837 10.5002C10.4114 10.506 10.5356 10.5443 10.6444 10.6116C10.7532 10.6788 10.843 10.7728 10.9052 10.8845C10.9675 10.9963 11.0001 11.1221 11 11.25ZM16.5463 14.1047L14.75 16.5H16.25C16.4489 16.5 16.6397 16.579 16.7803 16.7197C16.921 16.8603 17 17.0511 17 17.25C17 17.4489 16.921 17.6397 16.7803 17.7803C16.6397 17.921 16.4489 18 16.25 18H13.25C13.1107 18 12.9742 17.9612 12.8557 17.888C12.7372 17.8148 12.6415 17.71 12.5792 17.5854C12.5169 17.4608 12.4905 17.3214 12.503 17.1826C12.5155 17.0439 12.5664 16.9114 12.65 16.8L15.3481 13.2028C15.4095 13.1211 15.4535 13.0277 15.4775 12.9284C15.5015 12.8291 15.5049 12.7259 15.4876 12.6252C15.4703 12.5245 15.4325 12.4284 15.3767 12.3428C15.3209 12.2572 15.2482 12.1839 15.1631 12.1274C15.0779 12.0709 14.9821 12.0324 14.8816 12.0143C14.781 11.9961 14.6778 11.9987 14.5783 12.0219C14.4788 12.0451 14.385 12.0884 14.3028 12.1491C14.2206 12.2098 14.1517 12.2867 14.1003 12.375C14.0525 12.463 13.9876 12.5406 13.9093 12.6031C13.8311 12.6656 13.7411 12.7118 13.6447 12.739C13.5483 12.7661 13.4474 12.7737 13.3481 12.7613C13.2487 12.7489 13.1528 12.7166 13.0661 12.6665C12.9794 12.6165 12.9035 12.5495 12.8431 12.4696C12.7827 12.3898 12.7389 12.2986 12.7142 12.2015C12.6896 12.1044 12.6847 12.0034 12.6997 11.9044C12.7148 11.8054 12.7495 11.7104 12.8019 11.625C13.0496 11.1963 13.4319 10.8612 13.8894 10.6718C14.3469 10.4824 14.8541 10.4493 15.3324 10.5774C15.8107 10.7056 16.2333 10.988 16.5348 11.3808C16.8363 11.7736 16.9998 12.2548 17 12.75C17.0016 13.2391 16.8421 13.7152 16.5463 14.1047Z"/>
</svg>

<svg viewBox="0 0 24 24" xmlns="http://www.w3.org/2000/svg" aria-hidden="true" fill="currentColor"><path d="M20 3h-2.25v-.75a.75.75 0 1 0-1.5 0V3h-7.5v-.75a.75.75 0 0 0-1.5 0V3H5a1.5 1.5 0 0 0-1.5 1.5v15A1.5 1.5 0 0 0 5 21h15a1.5 1.5 0 0 0 1.5-1.5v-15A1.5 1.5 0 0 0 20 3M7.25 4.5v.75a.75.75 0 0 0 1.5 0V4.5h7.5v.75a.75.75 0 1 0 1.5 0V4.5H20v3H5v-3zM20 19.5H5V9h15zm-9-8.25v6a.75.75 0 1 1-1.5 0v-4.787l-.414.208a.75.75 0 0 1-.672-1.342l1.5-.75A.75.75 0 0 1 11 11.25m5.546 2.855L14.75 16.5h1.5a.75.75 0 1 1 0 1.5h-3a.75.75 0 0 1-.6-1.2l2.698-3.597a.75.75 0 1 0-1.248-.828.75.75 0 1 1-1.298-.75 2.25 2.25 0 1 1 3.744 2.48"/></svg>
